svg/u2194.svg

<svg viewBox="0 0 128 128" xmlns="http://www.w3.org/2000/svg">
  <g>
    <path d="M116.46,3.96h-104c-4.42,0-8,3.58-8,8v104c0,4.42,3.58,8,8,8h104c4.42,0,8-3.58,8-8v-104 C124.46,7.54,120.88,3.96,116.46,3.96z" fill="#427687"/>
    <path d="M110.16,3.96h-98.2c-4.13,0.03-7.47,3.37-7.5,7.5v97.9c-0.01,4.14,3.34,7.49,7.48,7.5 c0.01,0,0.01,0,0.02,0h98.1c4.14,0.01,7.49-3.34,7.5-7.48c0-0.01,0-0.01,0-0.02v-97.9c0.09-4.05-3.13-7.41-7.18-7.5 C110.31,3.96,110.23,3.96,110.16,3.96z" fill="#8CAFBF"/>
    <path d="M106.56,58.46l-24-24c-1.68-1.44-4.2-1.24-5.64,0.44c-0.61,0.71-0.95,1.62-0.96,2.56v14 c0,1.1-0.9,2-2,2h-23c-1.1,0-2-0.9-2-2v-14c-0.02-2.21-1.83-3.98-4.04-3.96c-0.94,0.01-1.85,0.35-2.56,0.96l-24,24 c-1.66,1.46-1.82,3.99-0.35,5.65c0.11,0.13,0.23,0.24,0.35,0.35l24,24c1.68,1.44,4.2,1.24,5.64-0.44c0.61-0.71,0.95-1.62,0.96-2.56 v-14c0-1.1,0.9-2,2-2h23c1.1,0,2,0.9,2,2v14c0.02,2.21,1.83,3.98,4.04,3.96c0.94-0.01,1.85-0.35,2.56-0.96l24-24 c1.66-1.35,1.91-3.79,0.56-5.44C106.95,58.82,106.77,58.63,106.56,58.46z" fill="#FAFAFA"/>
  </g>
  <path d="M40.16,12.86c0-2.3-1.6-3-10.8-2.7c-7.7,0.3-11.5,1.2-13.8,4 s-2.9,8.5-3,15.3c0,4.8,0,9.3,2.5,9.3c3.4,0,3.4-7.9,6.2-12.3C26.66,17.76,40.16,15.86,40.16,12.86z" opacity="0.5" fill="#B4E1ED" enable-background="new "/>
</svg>

<svg viewBox="0 0 128 128" xmlns="http://www.w3.org/2000/svg">
  <defs/>
  <path d="M116.46,3.96 L12.46,3.96 C8.04,3.96 4.46,7.54 4.46,11.96 L4.46,115.96 C4.46,120.38 8.04,123.96 12.46,123.96 L116.46,123.96 C120.88,123.96 124.46,120.38 124.46,115.96 L124.46,11.96 C124.46,7.54 120.88,3.96 116.46,3.96 Z" fill="#427687"/>
  <path d="M110.16,3.96 L11.96,3.96 C7.83,3.99 4.49,7.33 4.46,11.46 L4.46,109.36 C4.45,113.5 7.8,116.85 11.94,116.86 C11.95,116.86 11.95,116.86 11.96,116.86 L110.06,116.86 C114.2,116.87 117.55,113.52 117.56,109.38 C117.56,109.37 117.56,109.37 117.56,109.36 L117.56,11.46 C117.65,7.41 114.43,4.05 110.38,3.96 C110.31,3.96 110.23,3.96 110.16,3.96 Z" fill="#8CAFBF"/>
  <path d="M106.56,58.46 L82.56,34.46 C80.88,33.02 78.36,33.22 76.92,34.9 C76.31,35.61 75.97,36.52 75.96,37.46 L75.96,51.46 C75.96,52.56 75.06,53.46 73.96,53.46 L50.96,53.46 C49.86,53.46 48.96,52.56 48.96,51.46 L48.96,37.46 C48.94,35.25 47.13,33.48 44.92,33.5 C43.98,33.51 43.07,33.85 42.36,34.46 L18.36,58.46 C16.7,59.92 16.54,62.45 18.01,64.11 C18.12,64.24 18.24,64.35 18.36,64.46 L42.36,88.46 C44.04,89.9 46.56,89.7 48,88.02 C48.61,87.31 48.95,86.4 48.96,85.46 L48.96,71.46 C48.96,70.36 49.86,69.46 50.96,69.46 L73.96,69.46 C75.06,69.46 75.96,70.36 75.96,71.46 L75.96,85.46 C75.98,87.67 77.79,89.44 80,89.42 C80.94,89.41 81.85,89.07 82.56,88.46 L106.56,64.46 C108.22,63.11 108.47,60.67 107.12,59.02 C106.95,58.82 106.77,58.63 106.56,58.46 Z" fill="#FAFAFA"/>
  <path d="M40.16,12.86 C40.16,10.56 38.56,9.86 29.36,10.16 C21.66,10.46 17.86,11.36 15.56,14.16 C13.26,16.96 12.66,22.66 12.56,29.46 C12.56,34.26 12.56,38.76 15.06,38.76 C18.46,38.76 18.46,30.86 21.26,26.46 C26.66,17.76 40.16,15.86 40.16,12.86 Z" fill="#B4E1ED" opacity="0.5"/>
</svg>
